X: 21059
T: Juniper
R: jig
M: 6/8
K: Amajor
e2|:aga ecA|FAd fed|cee Acc|Bcd efg|
aga ecA|FAd fed|cec dBG|1 A3 A2 e:|2 A3 A2 =G||
|:Fdf fed|fed agf|ecA EAc|EAc cBA|GBB EBB|
GBB EBB|1 AGA BAB|c2 A AG=G:|2 gfe efg|a3 a3||

